Sensual-Plasma/Sensual-Dark/icons/quassel.svg

<?xml version="1.0" encoding="UTF-8" standalone="no"?>
<svg
   xmlns:dc="http://purl.org/dc/elements/1.1/"
   xmlns:cc="http://creativecommons.org/ns#"
   xmlns:rdf="http://www.w3.org/1999/02/22-rdf-syntax-ns#"
   xmlns:svg="http://www.w3.org/2000/svg"
   xmlns="http://www.w3.org/2000/svg"
   xmlns:sodipodi="http://sodipodi.sourceforge.net/DTD/sodipodi-0.dtd"
   xmlns:inkscape="http://www.inkscape.org/namespaces/inkscape"
   width="24"
   height="24"
   id="svg3314"
   version="1.1"
   inkscape:version="1.0.1 (3bc2e813f5, 2020-09-07)"
   sodipodi:docname="quassel.svg">
  <defs
     id="defs3316" />
  <sodipodi:namedview
     id="base"
     pagecolor="#ffffff"
     bordercolor="#000000"
     borderopacity="1"
     inkscape:pageopacity="1"
     inkscape:pageshadow="2"
     inkscape:zoom="5.2706757"
     inkscape:cx="-12.09762"
     inkscape:cy="5.3146554"
     inkscape:current-layer="svg3314"
     showgrid="false"
     inkscape:grid-bbox="true"
     inkscape:document-units="px"
     borderlayer="true"
     inkscape:window-width="1920"
     inkscape:window-height="1012"
     inkscape:window-x="0"
     inkscape:window-y="0"
     inkscape:window-maximized="1"
     showguides="false"
     inkscape:guide-bbox="true"
     inkscape:lockguides="true"
     inkscape:document-rotation="0">
    <inkscape:grid
       type="xygrid"
       id="grid3045"
       empspacing="5"
       visible="true"
       enabled="true"
       snapvisiblegridlinesonly="true" />
    <sodipodi:guide
       orientation="0,1"
       position="15,20"
       id="guide3086"
       inkscape:locked="true" />
    <sodipodi:guide
       orientation="0,1"
       position="24,4"
       id="guide3088"
       inkscape:locked="true" />
    <sodipodi:guide
       orientation="0,1"
       position="0,12"
       id="guide4128"
       inkscape:locked="true" />
  </sodipodi:namedview>
  <metadata
     id="metadata3319">
    <rdf:RDF>
      <cc:Work
         rdf:about="">
        <dc:format>image/svg+xml</dc:format>
        <dc:type
           rdf:resource="http://purl.org/dc/dcmitype/StillImage" />
        <dc:title>Tilain</dc:title>
      </cc:Work>
    </rdf:RDF>
  </metadata>
  <g
     id="quassel"
     transform="translate(-24)"
     style="opacity:1">
    <rect
       y="0"
       x="0"
       height="24"
       width="24"
       id="rect3881"
       style="opacity:0;fill:#000000;fill-opacity:1;stroke:none" />
    <path
       style="fill:#ffffff;fill-opacity:0;stroke:none"
       d="m -12,3 c -4.970563,0 -9,4.0294373 -9,9 0,4.970563 4.029437,9 9,9 4.970563,0 9,-4.029437 9,-9 0,-4.9705627 -4.029437,-9 -9,-9 z m 0,1 c 4.418278,0 8,3.5817219 8,8 0,4.418278 -3.581722,8 -8,8 -4.418278,0 -8,-3.581722 -8,-8 0,-4.4182781 3.581722,-8 8,-8 z m 0,3 c -2.761424,0 -5,2.2385762 -5,5 0,2.761424 2.238576,5 5,5 0.403858,0 0.780125,-0.06585 1.15625,-0.15625 C -10.570186,16.92587 -10.300305,17 -10,17 c 1.656854,0 3,-1.343146 3,-3 0,-0.300305 -0.074131,-0.570186 -0.15625,-0.84375 C -7.06585,12.780125 -7,12.403858 -7,12 -7,9.2385762 -9.238576,7 -12,7 Z m 0,1 c 2.124079,0 3.838107,1.6588477 3.96875,3.75 C -8.558975,11.287916 -9.243451,11 -10,11 c -1.656854,0 -3,1.343146 -3,3 0,0.756549 0.287916,1.441025 0.75,1.96875 C -14.341152,15.838107 -16,14.124079 -16,12 c 0,-2.209139 1.790861,-4 4,-4 z m 2,4 c 1.104569,0 2,0.895431 2,2 0,1.104569 -0.895431,2 -2,2 -1.104569,0 -2,-0.895431 -2,-2 0,-1.104569 0.895431,-2 2,-2 z"
       transform="translate(24)"
       id="path3883" />
    <path
       id="path3885"
       d="m 12,4 c -4.418278,0 -8,3.5817219 -8,8 0,4.418278 3.581722,8 8,8 4.418278,0 8,-3.581722 8,-8 0,-4.4182781 -3.581722,-8 -8,-8 z m 0,3 c 2.761424,0 5,2.2385762 5,5 0,0.403858 -0.06585,0.780125 -0.15625,1.15625 C 16.925869,13.429814 17,13.699695 17,14 c 0,1.656854 -1.343146,3 -3,3 -0.300305,0 -0.570186,-0.07413 -0.84375,-0.15625 C 12.780125,16.934145 12.403858,17 12,17 9.2385763,17 7,14.761424 7,12 7,9.2385762 9.2385763,7 12,7 Z m 2,5 c -1.104569,0 -2,0.895431 -2,2 0,1.104569 0.895431,2 2,2 1.104569,0 2,-0.895431 2,-2 0,-1.104569 -0.895431,-2 -2,-2 z"
       style="fill:#d3dae3;fill-opacity:1;stroke:none"
       inkscape:connector-curvature="0" />
  </g>
  <g
     id="quassel_inactive"
     style="opacity:1"
     transform="translate(-48)">
    <rect
       style="opacity:0;fill:#000000;fill-opacity:1;stroke:none"
       id="rect3903"
       width="24"
       height="24"
       x="0"
       y="0" />
    <path
       style="fill:#ffffff;fill-opacity:0;stroke:none"
       d="m -36,3 c -4.970563,0 -9,4.0294373 -9,9 0,4.970563 4.029437,9 9,9 4.970563,0 9,-4.029437 9,-9 0,-4.9705627 -4.029437,-9 -9,-9 z m 0,1 c 4.418278,0 8,3.581722 8,8 0,4.418278 -3.581722,8 -8,8 -4.418278,0 -8,-3.581722 -8,-8 0,-4.418278 3.581722,-8 8,-8 z m 0,3 c -2.761424,0 -5,2.2385763 -5,5 0,2.761424 2.238576,5 5,5 0.403858,0 0.780125,-0.06585 1.15625,-0.15625 C -34.570186,16.92587 -34.300305,17 -34,17 c 1.656854,0 3,-1.343146 3,-3 0,-0.300305 -0.07413,-0.570186 -0.15625,-0.84375 C -31.06585,12.780125 -31,12.403858 -31,12 -31,9.2385763 -33.238576,7 -36,7 Z m 0,1 c 2.209139,0 4,1.790861 4,4 0,0.402063 -0.07713,0.790171 -0.1875,1.15625 C -32.068575,13.412149 -32,13.699233 -32,14 c 0,1.104569 -0.895431,2 -2,2 -0.300767,0 -0.587851,-0.06857 -0.84375,-0.1875 C -35.209829,15.922866 -35.597937,16 -36,16 c -2.209139,0 -4,-1.790861 -4,-4 0,-2.209139 1.790861,-4 4,-4 z"
       transform="translate(48)"
       id="path3917" />
    <path
       style="opacity:0.2;fill:#d3dae3;fill-opacity:1;stroke:none"
       d="m 12,4 c -4.418278,0 -8,3.581722 -8,8 0,4.418278 3.581722,8 8,8 4.418278,0 8,-3.581722 8,-8 0,-4.418278 -3.581722,-8 -8,-8 z m 0,3 c 2.761424,0 5,2.2385763 5,5 0,0.403858 -0.06585,0.780125 -0.15625,1.15625 C 16.925869,13.429814 17,13.699695 17,14 c 0,1.656854 -1.343146,3 -3,3 -0.300305,0 -0.570186,-0.07413 -0.84375,-0.15625 C 12.780125,16.934145 12.403858,17 12,17 9.2385763,17 7,14.761424 7,12 7,9.2385763 9.2385763,7 12,7 Z"
       id="path3911"
       inkscape:connector-curvature="0" />
  </g>
  <g
     id="quassel_message">
    <rect
       style="opacity:0;fill:#000000;fill-opacity:1;stroke:none"
       id="rect3018"
       width="24"
       height="24"
       x="0"
       y="0" />
    <path
       style="fill:#ffffff;fill-opacity:0;stroke:none"
       d="m 12,3 c -4.970563,0 -9,4.0294373 -9,9 0,4.970563 4.029437,9 9,9 1.443015,0 2.791188,-0.365103 4,-0.96875 V 21 c 0,1.104569 0.895431,2 2,2 1.104569,0 2,-0.895431 2,-2 v -1 c 0,0 2,-6 2,-9 0,0 -0.0036,-1.7290095 -1.75,-2.5625 C 18.868508,5.2418882 15.702876,3 12,3 Z m 0,1 c 2.98777,0 5.59496,1.635644 6.96875,4.0625 C 18.674147,8.0194973 18.35473,8 18,8 16.935233,8 16.1671,8.2192728 15.59375,8.53125 14.684556,7.5902318 13.411835,7 12,7 9.238576,7 7,9.2385762 7,12 c 0,2.761424 2.238576,5 5,5 0.403858,0 0.780125,-0.06585 1.15625,-0.15625 C 13.429814,16.92587 13.699695,17 14,17 c 0.36934,0 0.70449,-0.09667 1.03125,-0.21875 0.257257,0.952708 0.507074,1.731614 0.6875,2.3125 C 14.608901,19.676521 13.340546,20 12,20 7.581722,20 4,16.418278 4,12 4,7.5817219 7.581722,4 12,4 Z m 0,4 c 1.093168,0 2.065247,0.4446905 2.78125,1.15625 C 14.017556,10.000118 14,11 14,11 c -1.656854,0 -3,1.343146 -3,3 0,0.756549 0.287916,1.441025 0.75,1.96875 C 9.658848,15.838107 8,14.124079 8,12 8,9.790861 9.790861,8 12,8 Z m 6,1 c 3,0 3,2 3,2 0,3 -2,8 -2,8 h -2 c 0,0 -2,-5 -2,-8 0,0 0,-2 3,-2 z m -4,3 c 0.02112,0 0.04154,-6.5e-4 0.0625,0 0.119856,1.169438 0.391502,2.540767 0.71875,3.84375 C 14.541973,15.944956 14.276142,16 14,16 c -1.104569,0 -2,-0.895431 -2,-2 0,-1.104569 0.895431,-2 2,-2 z m 4,8 c 0.552285,0 1,0.447715 1,1 0,0.552285 -0.447715,1 -1,1 -0.552285,0 -1,-0.447715 -1,-1 0,-0.552285 0.447715,-1 1,-1 z"
       id="path3020" />
    <path
       style="fill:#d3dae3;fill-opacity:1;stroke:none"
       d="m 12,4 c -4.418278,0 -8,3.5817219 -8,8 0,4.418278 3.581722,8 8,8 1.340546,0 2.608901,-0.323479 3.71875,-0.90625 -0.180426,-0.580886 -0.430243,-1.359792 -0.6875,-2.3125 C 14.70449,16.903334 14.36934,17 14,17 13.699695,17 13.429814,16.92587 13.15625,16.84375 12.780125,16.934145 12.403858,17 12,17 9.2385763,17 7,14.761424 7,12 7,9.2385762 9.2385763,7 12,7 13.411835,7 14.684556,7.5902318 15.59375,8.53125 16.1671,8.2192728 16.935233,8 18,8 18.35473,8 18.674147,8.0194973 18.96875,8.0625 17.59496,5.635644 14.98777,4 12,4 Z m 2,8 c -1.104569,0 -2,0.895431 -2,2 0,1.104569 0.895431,2 2,2 0.276142,0 0.541973,-0.05504 0.78125,-0.15625 C 14.454002,14.540767 14.182356,13.169438 14.0625,12 14.041541,11.99935 14.021117,12 14,12 Z"
       id="path3022" />
    <path
       sodipodi:nodetypes="cccczcsssss"
       inkscape:connector-curvature="0"
       style="fill:#4e51ac;fill-opacity:1;stroke:none"
       d="M 16.878221,11.335397 C 16.878221,14.335397 17,19 17,19 h 2 c 0,0 -0.04592,-4.698143 -0.04592,-7.698143 0,0 -0.09858,-2.6931731 -1.048944,-2.6931731 -0.950361,0 -1.026915,2.7267131 -1.026915,2.7267131 z M 18,20 c -0.552285,0 -1,0.447715 -1,1 0,0.552285 0.447715,1 1,1 0.552285,0 1,-0.447715 1,-1 0,-0.552285 -0.447715,-1 -1,-1 z"
       id="path7974" />
  </g>
</svg>

<?xml version="1.0" encoding="UTF-8" standalone="no"?>
<svg
   xmlns:dc="http://purl.org/dc/elements/1.1/"
   xmlns:cc="http://creativecommons.org/ns#"
   xmlns:rdf="http://www.w3.org/1999/02/22-rdf-syntax-ns#"
   xmlns:svg="http://www.w3.org/2000/svg"
   xmlns="http://www.w3.org/2000/svg"
   xmlns:sodipodi="http://sodipodi.sourceforge.net/DTD/sodipodi-0.dtd"
   xmlns:inkscape="http://www.inkscape.org/namespaces/inkscape"
   width="24"
   height="24"
   id="svg3314"
   version="1.1"
   inkscape:version="0.92.4 (5da689c313, 2019-01-14)"
   sodipodi:docname="quassel.svg">
  <defs
     id="defs3316" />
  <sodipodi:namedview
     id="base"
     pagecolor="#ffffff"
     bordercolor="#000000"
     borderopacity="1"
     inkscape:pageopacity="1"
     inkscape:pageshadow="2"
     inkscape:zoom="5.2706757"
     inkscape:cx="-12.09762"
     inkscape:cy="5.3146554"
     inkscape:current-layer="svg3314"
     showgrid="false"
     inkscape:grid-bbox="true"
     inkscape:document-units="px"
     borderlayer="true"
     inkscape:window-width="1920"
     inkscape:window-height="1017"
     inkscape:window-x="0"
     inkscape:window-y="0"
     inkscape:window-maximized="1"
     showguides="false"
     inkscape:guide-bbox="true"
     inkscape:lockguides="true">
    <inkscape:grid
       type="xygrid"
       id="grid3045"
       empspacing="5"
       visible="true"
       enabled="true"
       snapvisiblegridlinesonly="true" />
    <sodipodi:guide
       orientation="0,1"
       position="15,20"
       id="guide3086"
       inkscape:locked="true" />
    <sodipodi:guide
       orientation="0,1"
       position="24,4"
       id="guide3088"
       inkscape:locked="true" />
    <sodipodi:guide
       orientation="0,1"
       position="0,12"
       id="guide4128"
       inkscape:locked="true" />
  </sodipodi:namedview>
  <metadata
     id="metadata3319">
    <rdf:RDF>
      <cc:Work
         rdf:about="">
        <dc:format>image/svg+xml</dc:format>
        <dc:type
           rdf:resource="http://purl.org/dc/dcmitype/StillImage" />
        <dc:title>Tilain</dc:title>
      </cc:Work>
    </rdf:RDF>
  </metadata>
  <g
     id="quassel"
     transform="translate(-24,0)"
     style="opacity:1">
    <rect
       y="0"
       x="0"
       height="24"
       width="24"
       id="rect3881"
       style="opacity:0;fill:#000000;fill-opacity:1;stroke:none" />
    <path
       style="fill:#ffffff;fill-opacity:0;stroke:none"
       d="M -12 3 C -16.970563 3 -21 7.0294373 -21 12 C -21 16.970563 -16.970563 21 -12 21 C -7.029437 21 -3 16.970563 -3 12 C -3 7.0294373 -7.029437 3 -12 3 z M -12 4 C -7.581722 4 -4 7.5817219 -4 12 C -4 16.418278 -7.581722 20 -12 20 C -16.418278 20 -20 16.418278 -20 12 C -20 7.5817219 -16.418278 4 -12 4 z M -12 7 C -14.761424 7 -17 9.2385762 -17 12 C -17 14.761424 -14.761424 17 -12 17 C -11.596142 17 -11.219875 16.934145 -10.84375 16.84375 C -10.570186 16.92587 -10.300305 17 -10 17 C -8.343146 17 -7 15.656854 -7 14 C -7 13.699695 -7.074131 13.429814 -7.15625 13.15625 C -7.06585 12.780125 -7 12.403858 -7 12 C -7 9.2385762 -9.238576 7 -12 7 z M -12 8 C -9.875921 8 -8.161893 9.6588477 -8.03125 11.75 C -8.558975 11.287916 -9.243451 11 -10 11 C -11.656854 11 -13 12.343146 -13 14 C -13 14.756549 -12.712084 15.441025 -12.25 15.96875 C -14.341152 15.838107 -16 14.124079 -16 12 C -16 9.790861 -14.209139 8 -12 8 z M -10 12 C -8.895431 12 -8 12.895431 -8 14 C -8 15.104569 -8.895431 16 -10 16 C -11.104569 16 -12 15.104569 -12 14 C -12 12.895431 -11.104569 12 -10 12 z "
       transform="translate(24,0)"
       id="path3883" />
    <path
       id="path3885"
       d="m 12,4 c -4.418278,0 -8,3.5817219 -8,8 0,4.418278 3.581722,8 8,8 4.418278,0 8,-3.581722 8,-8 0,-4.4182781 -3.581722,-8 -8,-8 z m 0,3 c 2.761424,0 5,2.2385762 5,5 0,0.403858 -0.06585,0.780125 -0.15625,1.15625 C 16.925869,13.429814 17,13.699695 17,14 c 0,1.656854 -1.343146,3 -3,3 -0.300305,0 -0.570186,-0.07413 -0.84375,-0.15625 C 12.780125,16.934145 12.403858,17 12,17 9.2385763,17 7,14.761424 7,12 7,9.2385762 9.2385763,7 12,7 z m 2,5 c -1.104569,0 -2,0.895431 -2,2 0,1.104569 0.895431,2 2,2 1.104569,0 2,-0.895431 2,-2 0,-1.104569 -0.895431,-2 -2,-2 z"
       style="fill:#a1b4ba;fill-opacity:1;stroke:none"
       inkscape:connector-curvature="0" />
  </g>
  <g
     id="quassel_inactive"
     style="opacity:1"
     transform="translate(-48,0)">
    <rect
       style="opacity:0;fill:#000000;fill-opacity:1;stroke:none"
       id="rect3903"
       width="24"
       height="24"
       x="0"
       y="0" />
    <path
       style="fill:#ffffff;fill-opacity:0;stroke:none"
       d="M -36 3 C -40.970563 3 -45 7.0294373 -45 12 C -45 16.970563 -40.970563 21 -36 21 C -31.029437 21 -27 16.970563 -27 12 C -27 7.0294373 -31.029437 3 -36 3 z M -36 4 C -31.581722 4 -28 7.581722 -28 12 C -28 16.418278 -31.581722 20 -36 20 C -40.418278 20 -44 16.418278 -44 12 C -44 7.581722 -40.418278 4 -36 4 z M -36 7 C -38.761424 7 -41 9.2385763 -41 12 C -41 14.761424 -38.761424 17 -36 17 C -35.596142 17 -35.219875 16.934145 -34.84375 16.84375 C -34.570186 16.92587 -34.300305 17 -34 17 C -32.343146 17 -31 15.656854 -31 14 C -31 13.699695 -31.074131 13.429814 -31.15625 13.15625 C -31.06585 12.780125 -31 12.403858 -31 12 C -31 9.2385763 -33.238576 7 -36 7 z M -36 8 C -33.790861 8 -32 9.790861 -32 12 C -32 12.402063 -32.07713 12.790171 -32.1875 13.15625 C -32.068575 13.412149 -32 13.699233 -32 14 C -32 15.104569 -32.895431 16 -34 16 C -34.300767 16 -34.587851 15.93143 -34.84375 15.8125 C -35.209829 15.922866 -35.597937 16 -36 16 C -38.209139 16 -40 14.209139 -40 12 C -40 9.790861 -38.209139 8 -36 8 z "
       transform="translate(48,0)"
       id="path3917" />
    <path
       style="fill:#a1b4ba;fill-opacity:1;stroke:none;opacity:0.2"
       d="m 12,4 c -4.418278,0 -8,3.581722 -8,8 0,4.418278 3.581722,8 8,8 4.418278,0 8,-3.581722 8,-8 0,-4.418278 -3.581722,-8 -8,-8 z m 0,3 c 2.761424,0 5,2.2385763 5,5 0,0.403858 -0.06585,0.780125 -0.15625,1.15625 C 16.925869,13.429814 17,13.699695 17,14 c 0,1.656854 -1.343146,3 -3,3 -0.300305,0 -0.570186,-0.07413 -0.84375,-0.15625 C 12.780125,16.934145 12.403858,17 12,17 9.2385763,17 7,14.761424 7,12 7,9.2385763 9.2385763,7 12,7 z"
       id="path3911"
       inkscape:connector-curvature="0" />
  </g>
  <g
     id="quassel_message">
    <rect
       style="opacity:0;fill:#000000;fill-opacity:1;stroke:none"
       id="rect3018"
       width="24"
       height="24"
       x="0"
       y="0" />
    <path
       style="fill:#ffffff;fill-opacity:0;stroke:none"
       d="M 12 3 C 7.029437 3 3 7.0294373 3 12 C 3 16.970563 7.029437 21 12 21 C 13.443015 21 14.791188 20.634897 16 20.03125 L 16 21 C 16 22.104569 16.895431 23 18 23 C 19.104569 23 20 22.104569 20 21 L 20 20 C 20 20 22 14 22 11 C 22 11 21.996361 9.2709905 20.25 8.4375 C 18.868508 5.2418882 15.702876 3 12 3 z M 12 4 C 14.98777 4 17.59496 5.635644 18.96875 8.0625 C 18.674147 8.0194973 18.35473 8 18 8 C 16.935233 8 16.1671 8.2192728 15.59375 8.53125 C 14.684556 7.5902318 13.411835 7 12 7 C 9.238576 7 7 9.2385762 7 12 C 7 14.761424 9.238576 17 12 17 C 12.403858 17 12.780125 16.93415 13.15625 16.84375 C 13.429814 16.92587 13.699695 17 14 17 C 14.36934 17 14.70449 16.903334 15.03125 16.78125 C 15.288507 17.733958 15.538324 18.512864 15.71875 19.09375 C 14.608901 19.676521 13.340546 20 12 20 C 7.581722 20 4 16.418278 4 12 C 4 7.5817219 7.581722 4 12 4 z M 12 8 C 13.093168 8 14.065247 8.4446905 14.78125 9.15625 C 14.017556 10.000118 14 11 14 11 C 12.343146 11 11 12.343146 11 14 C 11 14.756549 11.287916 15.441025 11.75 15.96875 C 9.658848 15.838107 8 14.124079 8 12 C 8 9.790861 9.790861 8 12 8 z M 18 9 C 21 9 21 11 21 11 C 21 14 19 19 19 19 L 17 19 C 17 19 15 14 15 11 C 15 11 15 9 18 9 z M 14 12 C 14.021117 12 14.041541 11.99935 14.0625 12 C 14.182356 13.169438 14.454002 14.540767 14.78125 15.84375 C 14.541973 15.944956 14.276142 16 14 16 C 12.895431 16 12 15.104569 12 14 C 12 12.895431 12.895431 12 14 12 z M 18 20 C 18.552285 20 19 20.447715 19 21 C 19 21.552285 18.552285 22 18 22 C 17.447715 22 17 21.552285 17 21 C 17 20.447715 17.447715 20 18 20 z "
       id="path3020" />
    <path
       style="fill:#a1b4ba;fill-opacity:1;stroke:none"
       d="M 12 4 C 7.581722 4 4 7.5817219 4 12 C 4 16.418278 7.581722 20 12 20 C 13.340546 20 14.608901 19.676521 15.71875 19.09375 C 15.538324 18.512864 15.288507 17.733958 15.03125 16.78125 C 14.70449 16.903334 14.36934 17 14 17 C 13.699695 17 13.429814 16.92587 13.15625 16.84375 C 12.780125 16.934145 12.403858 17 12 17 C 9.2385763 17 7 14.761424 7 12 C 7 9.2385762 9.2385763 7 12 7 C 13.411835 7 14.684556 7.5902318 15.59375 8.53125 C 16.1671 8.2192728 16.935233 8 18 8 C 18.35473 8 18.674147 8.0194973 18.96875 8.0625 C 17.59496 5.635644 14.98777 4 12 4 z M 14 12 C 12.895431 12 12 12.895431 12 14 C 12 15.104569 12.895431 16 14 16 C 14.276142 16 14.541973 15.944956 14.78125 15.84375 C 14.454002 14.540767 14.182356 13.169438 14.0625 12 C 14.041541 11.99935 14.021117 12 14 12 z "
       id="path3022" />
    <path
       sodipodi:nodetypes="cccczcsssss"
       inkscape:connector-curvature="0"
       style="fill:#4e51ac;fill-opacity:1;stroke:none"
       d="M 16.878221,11.335397 C 16.878221,14.335397 17,19 17,19 h 2 c 0,0 -0.04592,-4.698143 -0.04592,-7.698143 0,0 -0.09858,-2.6931731 -1.048944,-2.6931731 -0.950361,0 -1.026915,2.7267131 -1.026915,2.7267131 z M 18,20 c -0.552285,0 -1,0.447715 -1,1 0,0.552285 0.447715,1 1,1 0.552285,0 1,-0.447715 1,-1 0,-0.552285 -0.447715,-1 -1,-1 z"
       id="path7974" />
  </g>
</svg>
